X:357
T:Herbert Mallet
M:6/8
K:G
d2 D d2 e | d2 B G2 D | E2 G A2 G | F2 E D3 | 
d2 D d2 e | d2 B G2 D | EFG A2 F | G3 G3 :|| 
B2 A GFE | D2 B, D2 D | G2 D G2 B | A3 A3 | 
B2 A GFE | D2 B, D2 D | EFG A2 F | G3 G3 :|| 

